dist/icons/skills/react.svg

<svg width="72" height="65" viewBox="0 0 72 65" fill="none" xmlns="http://www.w3.org/2000/svg">
<path d="M0.212097 32.4294C0.212097 37.8596 5.48904 42.9288 13.8086 45.7861C12.1473 54.1903 13.5108 60.9639 18.0654 63.6034C22.747 66.3162 29.7215 64.4383 36.3412 58.624C42.7938 64.2036 49.3154 66.3995 53.8657 63.7525C58.5428 61.0319 59.9654 53.7988 58.2581 45.1323C66.9234 42.2536 71.7705 37.931 71.7705 32.4294C71.7705 27.1252 66.4837 22.5363 58.2764 19.6972C60.1144 10.6726 58.557 4.0633 53.8139 1.31488C49.2411 -1.33477 42.6438 0.974672 36.0962 6.70042C29.2846 0.622991 22.7524 -1.23252 18.0139 1.52391C13.4455 4.18109 12.1419 11.0779 13.8086 19.6376C5.76996 22.4539 0.212097 27.1464 0.212097 32.4294Z" fill="white"/>
<path d="M56.5381 22.5166C55.8789 22.2885 55.1958 22.0728 54.4924 21.8688C54.608 21.3947 54.7141 20.9267 54.8084 20.4667C56.357 12.9133 55.3445 6.82827 51.887 4.82481C48.5718 2.90376 43.1499 4.90677 37.674 9.69525C37.1475 10.1557 36.6194 10.6432 36.0916 11.1541C35.7399 10.8161 35.3888 10.4894 35.0386 10.177C29.2998 5.0568 23.5474 2.8991 20.0934 4.90836C16.7813 6.83498 15.8004 12.5555 17.1944 19.7139C17.329 20.4053 17.4863 21.1114 17.6643 21.8293C16.8501 22.0616 16.0642 22.3091 15.3122 22.5725C8.584 24.9296 4.28708 28.6237 4.28708 32.4554C4.28708 36.4129 8.89983 40.3823 15.9078 42.7892C16.4608 42.9791 17.0346 43.1587 17.626 43.3292C17.4341 44.1057 17.2671 44.8665 17.1269 45.6086C15.7978 52.6428 16.8358 58.2282 20.1391 60.1427C23.5511 62.1198 29.2774 60.0875 34.8533 55.1899C35.294 54.8028 35.7363 54.3922 36.1794 53.9619C36.7537 54.5176 37.3271 55.0435 37.8974 55.5368C43.2984 60.207 48.6327 62.0928 51.933 60.173C55.3416 58.1902 56.4493 52.1902 55.0112 44.8902C54.9013 44.3326 54.7735 43.7631 54.6299 43.1834C55.0321 43.0639 55.4269 42.9406 55.8118 42.8124C63.0972 40.3869 67.8373 36.4658 67.8373 32.4554C67.8373 28.6098 63.4018 24.8908 56.5381 22.5166Z" fill="#53C1DE"/>
<path d="M54.958 40.2229C54.6105 40.3385 54.2539 40.4502 53.8906 40.5586C53.0863 38.0001 52.0009 35.2795 50.6725 32.4687C51.9401 29.7248 52.9836 27.039 53.7654 24.4971C54.4155 24.6861 55.0465 24.8855 55.6545 25.0959C61.5353 27.1302 65.1225 30.1379 65.1225 32.4554C65.1225 34.924 61.2484 38.1285 54.958 40.2229ZM52.3479 45.4199C52.9838 48.6479 53.0747 51.5663 52.6534 53.8478C52.2749 55.8979 51.5138 57.2647 50.5726 57.8121C48.5699 58.977 44.2869 57.4628 39.668 53.4689C39.1385 53.011 38.6051 52.5222 38.0701 52.0048C39.8607 50.0369 41.6504 47.7491 43.397 45.2084C46.4692 44.9344 49.3717 44.4866 52.0039 43.8752C52.1335 44.4007 52.2487 44.916 52.3479 45.4199ZM25.9528 57.6108C23.9961 58.3052 22.4376 58.3251 21.4956 57.7793C19.491 56.6175 18.6577 52.133 19.7944 46.1174C19.9246 45.4284 20.0796 44.7208 20.2582 43.9974C22.8615 44.5758 25.7427 44.9921 28.8223 45.2429C30.5807 47.7291 32.4221 50.0144 34.2777 52.0153C33.8722 52.4086 33.4684 52.783 33.0668 53.1358C30.6012 55.3015 28.1303 56.838 25.9528 57.6108ZM16.7858 40.2078C13.687 39.1436 11.1279 37.7604 9.3738 36.251C7.79761 34.8946 7.00182 33.548 7.00182 32.4554C7.00182 30.1301 10.4518 27.1643 16.2058 25.1484C16.904 24.9038 17.6349 24.6733 18.3933 24.4568C19.1885 27.0561 20.2317 29.7737 21.4906 32.5218C20.2154 35.3107 19.1574 38.0716 18.3544 40.7013C17.8137 40.5452 17.2898 40.3808 16.7858 40.2078ZM19.8587 19.19C18.6643 13.0568 19.4575 8.43022 21.4535 7.26925C23.5796 6.03246 28.2809 7.79586 33.2359 12.2169C33.5527 12.4994 33.8707 12.7952 34.1895 13.1012C32.3431 15.0934 30.5186 17.3615 28.7758 19.833C25.787 20.1114 22.926 20.5585 20.2955 21.1573C20.1301 20.4888 19.9836 19.8321 19.8587 19.19ZM47.2714 25.9916C46.6425 24.9002 45.997 23.8346 45.3388 22.7981C47.3665 23.0556 49.3092 23.3975 51.1336 23.8159C50.5858 25.5798 49.9032 27.424 49.0996 29.3146C48.5231 28.2149 47.9134 27.1061 47.2714 25.9916ZM36.0925 15.0508C37.3447 16.4139 38.5988 17.9359 39.8322 19.5872C38.5893 19.5283 37.3309 19.4976 36.0622 19.4976C34.8055 19.4976 33.5564 19.5276 32.3212 19.5855C33.5558 17.9496 34.8207 16.4296 36.0925 15.0508ZM24.8421 26.0105C24.2139 27.1049 23.6155 28.2077 23.0481 29.3125C22.2576 27.4285 21.5812 25.5759 21.0287 23.7871C22.8419 23.3793 24.7755 23.046 26.7902 22.7933C26.1228 23.8393 25.4719 24.9128 24.8421 26.0102V26.0105ZM26.8482 42.3121C24.7666 42.0787 22.804 41.7625 20.9913 41.366C21.5526 39.5452 22.2439 37.6531 23.0512 35.7285C23.6201 36.8325 24.2208 37.9357 24.8528 39.0326H24.8529C25.4967 40.1501 26.1637 41.2447 26.8482 42.3121ZM36.1676 50.0523C34.8809 48.6573 33.5975 47.1142 32.344 45.4543C33.5608 45.5023 34.8014 45.5269 36.0622 45.5269C37.3575 45.5269 38.638 45.4975 39.8984 45.4412C38.6609 47.1309 37.4114 48.6764 36.1676 50.0523ZM49.1255 35.6304C49.9749 37.5758 50.6909 39.4581 51.2595 41.2478C49.4169 41.6702 47.4275 42.0104 45.3314 42.2632C45.9911 41.2127 46.6423 40.1288 47.2822 39.0139C47.9296 37.8858 48.5443 36.7561 49.1255 35.6304ZM44.9306 37.651C43.9372 39.3818 42.9173 41.034 41.8819 42.5936C39.9961 42.7291 38.0479 42.7989 36.0622 42.7989C34.0846 42.7989 32.1609 42.7372 30.3084 42.6164C29.2313 41.0363 28.1893 39.3792 27.2022 37.6659H27.2024C26.218 35.9573 25.3119 34.2342 24.4909 32.5209C25.3116 30.8035 26.2153 29.0785 27.1942 27.373L27.1939 27.3733C28.1754 25.6632 29.2082 24.0142 30.2754 22.444C32.1654 22.3004 34.1035 22.2255 36.0621 22.2255H36.0622C38.0297 22.2255 39.9702 22.301 41.8597 22.4458C42.9105 24.0045 43.9364 25.6482 44.9217 27.3585C45.9181 29.0881 46.8335 30.8016 47.6613 32.4821C46.836 34.1915 45.9226 35.9223 44.9306 37.651ZM50.531 7.18809C52.6591 8.42124 53.4867 13.3945 52.1496 19.9161C52.0643 20.3322 51.9683 20.7561 51.864 21.1856C49.2274 20.5743 46.3644 20.1194 43.3668 19.8369C41.6206 17.3382 39.8111 15.0666 37.9947 13.0999C38.4831 12.6279 38.9707 12.1778 39.4563 11.753C44.148 7.65025 48.5331 6.03041 50.531 7.18809Z" fill="white"/>
<path d="M36.0622 26.7532C39.1963 26.7532 41.737 29.3061 41.737 32.4554C41.737 35.6046 39.1963 38.1576 36.0622 38.1576C32.9281 38.1576 30.3874 35.6046 30.3874 32.4554C30.3874 29.3061 32.9281 26.7532 36.0622 26.7532Z" fill="#53C1DE"/>
</svg>

<svg width="72" height="65" fill="none" xmlns="http://www.w3.org/2000/svg"><path d="M.212 32.43c0 5.43 5.277 10.499 13.597 13.356-1.662 8.404-.298 15.178 4.256 17.817 4.682 2.713 11.656.835 18.276-4.979 6.453 5.58 12.974 7.776 17.525 5.128 4.677-2.72 6.1-9.953 4.392-18.62 8.665-2.878 13.512-7.201 13.512-12.703 0-5.304-5.286-9.893-13.494-12.732 1.838-9.024.281-15.634-4.462-18.382-4.573-2.65-11.17-.34-17.718 5.385C29.285.623 22.752-1.233 18.014 1.524c-4.569 2.657-5.872 9.554-4.205 18.114C5.77 22.454.212 27.146.212 32.429z" fill="#fff"/><path d="M56.538 22.517a42.26 42.26 0 00-2.046-.648c.116-.474.222-.942.316-1.402 1.549-7.554.536-13.639-2.921-15.642-3.315-1.921-8.737.082-14.213 4.87-.526.46-1.055.948-1.582 1.46a38.762 38.762 0 00-1.053-.978c-5.74-5.12-11.492-7.278-14.946-5.269-3.312 1.927-4.293 7.647-2.899 14.806.135.691.292 1.397.47 2.115-.814.233-1.6.48-2.352.744-6.728 2.357-11.025 6.05-11.025 9.882 0 3.958 4.613 7.927 11.62 10.334.554.19 1.128.37 1.719.54a42.065 42.065 0 00-.5 2.28c-1.328 7.034-.29 12.62 3.013 14.534 3.412 1.977 9.138-.056 14.714-4.953.441-.387.883-.798 1.326-1.228a41.82 41.82 0 001.718 1.575c5.401 4.67 10.736 6.556 14.036 4.636 3.409-1.983 4.516-7.983 3.078-15.283a36.32 36.32 0 00-.381-1.707c.402-.12.797-.242 1.182-.37 7.285-2.426 12.025-6.347 12.025-10.358 0-3.845-4.435-7.564-11.299-9.938z" fill="#53C1DE"/><path d="M54.958 40.223c-.347.116-.704.227-1.067.336-.805-2.559-1.89-5.28-3.218-8.09 1.267-2.744 2.31-5.43 3.092-7.972.65.19 1.282.389 1.89.599 5.88 2.034 9.468 5.042 9.468 7.36 0 2.468-3.875 5.672-10.165 7.767zm-2.61 5.197c.636 3.228.727 6.146.305 8.428-.378 2.05-1.14 3.417-2.08 3.964-2.003 1.165-6.286-.35-10.905-4.343a38.989 38.989 0 01-1.598-1.464c1.79-1.968 3.58-4.256 5.327-6.797 3.072-.274 5.975-.721 8.607-1.333.13.526.245 1.041.344 1.545zM25.953 57.61c-1.957.695-3.515.715-4.457.17-2.005-1.163-2.838-5.647-1.702-11.663.13-.689.286-1.396.464-2.12 2.604.579 5.485.995 8.564 1.246 1.759 2.486 3.6 4.771 5.456 6.772-.406.394-.81.768-1.211 1.12-2.466 2.166-4.937 3.703-7.114 4.476zm-9.167-17.402c-3.099-1.064-5.658-2.448-7.412-3.957-1.576-1.356-2.372-2.703-2.372-3.796 0-2.325 3.45-5.29 9.204-7.307.698-.244 1.429-.475 2.187-.691.796 2.6 1.839 5.317 3.098 8.065-1.276 2.789-2.334 5.55-3.137 8.18-.54-.157-1.064-.321-1.568-.494zm3.073-21.018c-1.195-6.133-.402-10.76 1.594-11.92 2.127-1.238 6.828.526 11.783 4.947.317.282.635.578.954.884-1.847 1.992-3.671 4.26-5.414 6.732-2.989.278-5.85.726-8.48 1.324a40.032 40.032 0 01-.437-1.967zm27.412 6.802a86.833 86.833 0 00-1.932-3.194c2.028.258 3.97.6 5.795 1.018a58.466 58.466 0 01-2.034 5.499 95.415 95.415 0 00-1.829-3.323zM36.093 15.05a58.234 58.234 0 013.74 4.536 79.683 79.683 0 00-7.512-.002 60.088 60.088 0 013.772-4.534zm-11.25 10.96a80.628 80.628 0 00-1.795 3.302 60.45 60.45 0 01-2.02-5.526 60.906 60.906 0 015.762-.994 80.205 80.205 0 00-1.948 3.217zm2.005 16.301a57.53 57.53 0 01-5.857-.946 61.449 61.449 0 012.06-5.638 80.787 80.787 0 003.797 6.584zm9.32 7.74a61.166 61.166 0 01-3.824-4.598c1.217.048 2.457.073 3.718.073 1.296 0 2.576-.03 3.836-.086a57.96 57.96 0 01-3.73 4.611zM49.126 35.63a58.074 58.074 0 012.134 5.618 57.424 57.424 0 01-5.929 1.015c.66-1.05 1.311-2.134 1.951-3.25a86.848 86.848 0 001.844-3.383zm-4.195 2.021a89.484 89.484 0 01-3.05 4.943 81.372 81.372 0 01-5.819.205c-1.977 0-3.901-.062-5.754-.183a77.457 77.457 0 01-3.106-4.95 76.85 76.85 0 01-2.711-5.145 77.426 77.426 0 012.703-5.148 76.74 76.74 0 013.081-4.929 76.538 76.538 0 015.787-.218c1.968 0 3.908.075 5.798.22a82.282 82.282 0 013.062 4.912 89.64 89.64 0 012.74 5.124 82.333 82.333 0 01-2.731 5.169zm5.6-30.463c2.128 1.233 2.956 6.207 1.619 12.728-.086.416-.182.84-.286 1.27-2.637-.612-5.5-1.067-8.497-1.35-1.746-2.498-3.556-4.77-5.372-6.736.488-.472.976-.922 1.461-1.347 4.692-4.103 9.077-5.723 11.075-4.565z" fill="#fff"/><path d="M36.062 26.753c3.134 0 5.675 2.553 5.675 5.702 0 3.15-2.54 5.703-5.675 5.703-3.134 0-5.675-2.553-5.675-5.703 0-3.149 2.541-5.702 5.675-5.702z" fill="#53C1DE"/></svg>
